icons/mobile/24/svg/edit-24.svg

<svg width="24" height="24" viewBox="0 0 24 24" fill="none" xmlns="http://www.w3.org/2000/svg">
<path fill-rule="evenodd" clip-rule="evenodd" d="M4.98073 3.96584C6.15687 2.78971 8.01352 2.67766 9.31765 3.68655L9.44167 3.78713L10.2063 4.44729C11.9975 6.01142 13.8479 7.7533 15.7151 9.6885C17.5016 11.5406 19.1051 13.3639 20.5413 15.1192C20.8438 15.4889 21.0003 15.945 21.0003 16.4121V20.126C21.0003 20.6092 20.6084 21.0009 20.1253 21.001H16.4114C15.9451 21.001 15.4891 20.8464 15.1175 20.542C13.5817 19.2855 11.9947 17.9002 10.3811 16.377L9.68776 15.7158C7.75256 13.8487 6.00944 11.9985 4.44558 10.2071L3.7864 9.44338C2.66963 8.13561 2.75218 6.19478 3.96413 4.98147L4.98073 3.96584ZM7.48073 10.9619C8.54648 12.112 9.68495 13.2812 10.9026 14.4561C12.7183 16.2075 14.5053 17.7797 16.2258 19.1875L16.2268 19.1885C16.2751 19.2279 16.3359 19.251 16.4114 19.251H19.2503V16.4121C19.2503 16.3374 19.2261 16.2758 19.1868 16.2276C17.7789 14.5069 16.2068 12.7192 14.4553 10.9033C13.2805 9.68571 12.1115 8.54711 10.9612 7.48147L7.48073 10.9619ZM8.30593 5.11819C7.69398 4.59646 6.78791 4.63328 6.21804 5.20315L5.20144 6.2178C4.63144 6.78843 4.59638 7.69643 5.11745 8.30666C5.50014 8.7553 5.89495 9.20867 6.30104 9.66506L9.66335 6.30276C9.20683 5.89656 8.75466 5.50118 8.30593 5.11819Z" fill="black"/>
</svg>

<!-- This Source Code Form is subject to the terms of the Mozilla Public
   - License, v. 2.0. If a copy of the MPL was not distributed with this
   - file, You can obtain one at http://mozilla.org/MPL/2.0/. -->
<svg xmlns="http://www.w3.org/2000/svg" width="24" height="24" fill="none" viewBox="0 0 24 24">
    <path fill="#000" fill-rule="evenodd" d="M4.98 3.966a3.29 3.29 0 0 1 4.338-.28l.124.101.764.66A89 89 0 0 1 20.541 15.12c.303.37.46.826.46 1.293v3.714a.875.875 0 0 1-.876.875h-3.714c-.466 0-.922-.155-1.294-.459a89 89 0 0 1-4.736-4.165l-.693-.661a89 89 0 0 1-5.242-5.509l-.66-.764a3.29 3.29 0 0 1 .178-4.462zm2.5 6.996a87 87 0 0 0 8.745 8.226h.002q.072.061.184.063h2.84v-2.839a.3.3 0 0 0-.064-.184 87 87 0 0 0-4.732-5.325 87 87 0 0 0-3.494-3.422zm.826-5.844a1.537 1.537 0 0 0-2.088.085L5.201 6.218a1.54 1.54 0 0 0-.084 2.089q.575.673 1.184 1.358l3.362-3.362a88 88 0 0 0-1.357-1.185" clip-rule="evenodd" />
</svg>
